X:9729
T:Lo Bolero
R:Bolero
C:Tradicional
S:Música Tradicional Asturiana, (C) Tello & Tito. Asturies, 2001.
S:http://pagina.de/MusTradAst <telloytito@asturies.org>
A:Asturies
Z:Les cuarenta principales
M:2/4
L:1/8
Q:1/4=100
K:C
|GG c2|cc cB|A2 BB|BA GG|
|c2 cc|cB A2|BB BA|GA AA|
|AG BA|GF E2|E2 AA|AA AG|BA GF|E2 E2|
|cc cc|cB dc|BA G2|G2 AA|AA AG|BA GF|E2 E2-|E4|


